X:1
T:Chur, 76.76 D
T:Chur, 76.76 D
T:Joseph Marion Hunt, 1883
T:Public Domain Courtesy of the Cyber Hymnal™
C:Joseph Marion Hunt, 1883
Z:Public Domain
Z:Courtesy of the Cyber Hymnal™
%%score ( 1 2 ) ( 3 4 )
L:1/8
Q:1/4=110
M:4/4
K:Bb
V:1 treble 
V:2 treble 
V:3 bass 
V:4 bass 
V:1
 [DF]2 | [DB]3 [DB] [DB]2 [FA]2 | [EG]4 [EG]2 [EG]2 | [DF]3 [EG] [DF]2 [CE]2 | [B,D]6 [DF]2 | %5
 [DB]3 [DB] [DB]2 [FA]2 | [EG]4 [EG]2 [EG]2 | [=Ec]3 [Ec] [Ec]2 [EB]2 | [FA]6 [FA]2 | %9
 [FB]3 [FB] [FA]2 [DB]2 | [Fc]4 [Fc]2 [Fc]2 | [FB]3 [Fc] [Fd]2 [FB]2 | [Fc]6 F2 | %13
 [EG]3 [EG] [GB]2 [EG]2 | [EG]4 [DF]2 [DF]2 | [DF]3 [DF] F2 [EF]2 | [DF]6 |] %17
V:2
 x2 | x8 | x8 | x8 | x8 | x8 | x8 | x8 | x8 | x8 | x8 | x8 | x6 F2 | x8 | x8 | x4 (CD) x2 | x6 |] %17
V:3
 [B,,B,]2 | [B,,F,]3 [B,,F,] [B,,B,]2 [D,B,]2 | [E,B,]4 [E,B,]2 [E,B,]2 | %3
 [F,B,]3 [F,B,] [F,B,]2 F,2 | [B,,F,]6 [B,,F,]2 | [B,,F,]3 [B,,F,] [B,,B,]2 [D,B,]2 | %6
 [E,B,]4 [E,B,]2 [E,B,]2 | [C,B,]3 [C,B,] [C,G,]2 [C,C]2 | [F,A,]6 [F,C]2 | %9
 [D,B,]3 [D,B,] [F,C]2 [F,B,]2 | [F,A,]4 [F,A,]2 [F,A,]2 | [D,B,]3 [C,A,] [B,,B,]2 [D,B,]2 | %12
 [F,A,]6 [D,B,]2 | [E,B,]3 [E,B,] [E,B,]2 [E,B,]2 | [B,,B,]4 [B,,B,]2 [B,,B,]2 | %15
 [F,B,]3 [F,B,] (A,B,) [F,C]2 | [B,,B,]6 |] %17
V:4
 x2 | x8 | x8 | x6 F,2 | x8 | x8 | x8 | x8 | x8 | x8 | x8 | x8 | x8 | x8 | x8 | x4 F,2 x2 | x6 |] %17

